X: 18624
T: I Wish I Never Saw You
R: reel
M: 4/4
K: Gmajor
|:edBA G3A|B2Ac BGEF|GAGE DEGA|BddB A2 (3Bcd|
edBA G3A|BdAc BE E2|GAGE DEGA|BGAB G3B:|
|:d3c BGBd|eaaf gfef|dedc BGBd|egfa g3e|
d3c BGBd|eaaf gfef|d3f e3g|fgaf gfed:|

